X:145
T: SEHT IHR MEINE HERREN
N: K2242
O: Europa, Mitteleuropa, Deutschland, Westfalen, Hoerde
R: Kinder - Lied, Reigen, Tanz, Nachahmungs - Spiel
M: 2/4
L: 1/8
K: D
 | DEFG | A2A
A | BBdB | A2z2
GGGG | FFFF
EEEE | DFAA
dAAA | dAA
A | DEFG | A2z
G | FFEE | D2z2

